X:1
T: Cowslip
N:
C:
S:
A:
O:
R:
M:4/4
K:Em
I:speed 200
%W: A1
% voice 1 (1 lines, 39 notes)
K:Em
M:4/4
L:1/16
B4 |e2 f2 g2 f2 e4 ^d4 |e12 d2 c2 |B4 G4 G2 A2 B2 c2 |d6 e2 d4 c4 |B4 A4 G2 A2 B2 G2 |A6 G2 F4 B2 A2 |G2 F2 E2 F2 G4 F4 |E12 B4 |
%W: A2
% voice 1 (1 lines, 40 notes)
e2 f2 g2 f2 e4 ^d4 |e12 d2 c2 |B4 G4 G2 A2 B2 c2 |d6 e2 d4 c4 |B4 A4 G2 A2 B2 G2 |A6 G2 F4 B2 A2 |G2 F2 E2 F2 G4 F4 |E12 D4/3 |E4/3 F4/3
%W: B1
% voice 1 (1 lines, 35 notes)
G4 G4 |G4 F2 E2 D4 d4 |d4 d4 d6 e2 |f2 d2 e2 f2 g4 d4 |B4 G4 G4 G2 A2 |B4 c4 d6 e2 |d4 c4 B4 A2 G2 |A6 G2 G12 |G4
%W:
% voice 1 (1 lines, 33 notes)
F4 G4 A4 |B4 c4 B4 A4 |G4 A6 G2 F4 |E4 F4 ^D4 D8 |B4 B2 ^c2 ^d4 B4 |e4 B4 A4 G4 |F4 F2 E2 ^D6 F2 |E12 D4/3 |E4/3 F4/3
%W: B2
% voice 1 (1 lines, 35 notes)
G4 G4 |G4 F2 E2 D4 d4 |d4 d4 d6 e2 |f2 d2 e2 f2 g4 d4 |B4 G4 G4 G2 A2 |B4 c4 d6 e2 |d4 c4 B4 A2 G2 |A6 G2 G12 |G4
%W:
% voice 1 (1 lines, 30 notes)
F4 G4 A4 |B4 c4 B4 A4 |G4 A6 G2 F4 |E4 F4 ^D4 D8 |B4 B2 ^c2 ^d4 B4 |e4 B4 A4 G4 |F4 F2 E2 ^D6 F2 |E12 ||
